X: 1780
T: Sim-ten Gonca
C: Şakir Ağa
O: Turkey
F: http://compmusic.upf.edu/node/140
N: acemasiran--sarki--duyek--sim-ten_gonca--sakir_aga
N: makam= acemasiran
N: form= sarki
N: usul= duyek = 8/4
M: 8/4
L: 1/16
K: C _B   
Q: 1/4=120
%%MIDI tuningsystem comma53
z4 c8 d2 e2  | f6 c2 d2 e2 f2 g2  | z2 e4 c2 c2 d4 c2  | \
w:   |   |   | 
z2 f4 e2 f3a g4  | 
w:   | 
z4 f2 e2 f4 a4  | g3a b3a g4 z4  | f4 a4 f4 a4  | \
w:   |   |   | 
b3a g2 a2 f4 z4  | 
w:   | 
f4 a4 f4 ag a2  | f3a g2 a2 gf ef g2 e2  | \
w:   |   | 
f6 ef g2 f2 _e2 d2  | 
w:   | 
c2 d2 _e2 d2 c2 B2 A2 B2  | A2 G2 F8 G2 A2  | \
w:   |   | 
B2 c2 B2 A2 c2 Bd c4  | 
w:   | 
f3e f2 d2 c8  | d3c gf _ed c2 B2 cB A^G  | \
w:   |   | 
A4 =Bc Bc Bc Bc d2 e2  | 
w:   | 
f3e f3e d2 ^c2 d2 e2  | ^c4 d4 z2 e2 d2 =c2  | \
w:   |   | 
c3B B3A A4 z2 F2  | 
w:   | 
G6 F2 F2 A4 GF  | F6 f2 e2 g2 f4  | z4 f4 f4 g2 a2  | \
w:   |   |   | 
b6 g2 g2 a2 b2 c'2  | 
w:   | 
z2 a4 g2 g3f f3e  | g2 a2 ag gf fe ed c4  | \
w:   |   | 
z4 f4 f4 g2 a2  | 
w:   | 
a2 b2 a2 g2 ^f2 g2 ab ag  | ^f4 g4 f2 g2 ab ag  | \
w:   |   | 
g6 e2 c8  | 
w:   | 
f4 a4 f4 ag a2  | g2 c'2 b2 d'2 c'6 g2  | \
w:   |   | 
_a6 ag g3f f3e  | e3_d d3c c2 f4 _e=d  | 
w:   |   | 
cB AG F8 G2 A2  | B2 c2 B2 A2 c2 Bd c4  | \
w:   |   | 
f3e f2 d2 c8  | d3c gf _ed c2 B2 cB A^G  | 
w:   |   | 
A4 =Bc Bc Bc Bc d2 e2  | f3e f3e d2 ^c2 d2 e2  | \
w:   |   | 
^c4 d4 z2 e2 d2 =c2  | 
w:   | 
c3B B3A A4 z2 F2  | G6 F2 F2 A4 GF  | \
w:   |   | 
F6 f2 e2 g2 f4  | z4 f4 f4 g2 a2  | 
w:   |   | 
b6 g2 g2 a2 b2 c'2  | z2 a4 g2 g3f f3e  | \
w:   |   | 
g2 a2 ag gf fe ed c4  | 
w:   | 
z4 f4 f4 g2 a2  | a2 b2 a2 g2 ^f2 g2 ab ag  | \
w:   |   | 
^f4 g4 f2 g2 ab ag  | 
w:   | 
g6 e2 c8  | f4 a4 f4 ag a2  | g2 c'2 b2 d'2 c'6 g2  | \
w:   |   |   | 
_a6 ag g3f f3e  | 
w:   | 
e3_d d3c c2 f4 _e=d  | cB AG F8 G2 A2  | \
w:   |   | 
B2 c2 B2 A2 c2 Bd c4  | 
w:   | 
|


